X:1
T:Mrs. Garden of Troup's Reel
C:Robert Petrie
S:Petrie's Second Collection of Strathspey Reels and Country Dances &c.
Z:Steve Wyrick , 6/5/04
N:Petrie's Second Collection, page 1
L:1/8
M:C
R:Reel
K:F
   B|Ac   f2     af (Tfe/f/)|dfcA    B(GGB)   |Ac (Tfe/f/) af (Tfe/f/)|dfcf AFFB    |
     Ac (Tfe/f/) af (Tfe/f/)|dfcA    BGGB     |Acfa        gafc       |dfcB AFF    ||
A/B/|cAFc        AFcA       |B(dTcA) B(GG)A/B/|cAFc        AFcA       |Bdce f/f/f f2|
     cAFc        AFcA       |B(dTcA) BGGB     |Acfa        Bdgb       |afge fFF    |]
